X:48
T:Pits Hornpipe. JJo.048
T:College Hornpipe,aka. JJo.048
T:Sailor’s Hornpipe,aka. JJo.048
S:J.Jones MS,1801,N.Shrops.
N:One or two barring errors and the odd wrong note in this
N:version of the well known tune. I’ve corrected both. NeilB
A:N. Shropshire
Z:Neil Brookes 2006
M:4/4
L:1/8
Q:1/2=90
K:C
cB|c2C4GF|EGc4 (3edc|d2″^C n MS”D4dc|Bdg2g2ab|!
c’bag agfe|fdef cBAG|AcBd cedf|e2c2c2::!
GF|EGcG EGcG|c2F2F2AG|FAdA FAdA|B2G2G2fe|!
fga2agfe|fdef cBAG|(3ABc (3Bcd (3cde (3def|e2c2c2:|

